X:1
T:Title
%%score [ ( 1 2 ) ( 3 4 ) ]
L:1/8
Q:1/4=90
M:4/4
K:F
V:1 treble nm="Midi_74"
V:2 treble 
V:3 bass nm="Midi_69"
V:4 bass 
V:1
"^John Bacchus Dykes\n(1823-76)""^James Montgomery \n(1771-1854)""^In the hour of trial""^St Mary Magdalene (65. 65. D)" F2 F2 G2 A2 | %1
 B4 A4 | A2 A2 G2 F2 | E8 || F2 F2 G2 A2 | B4 A4 | A2 A2 ^G2 G2 | A8 || c2 c2 c2 A2 | B4 G4 | %10
 A2 A2 G2 F2 | E8 || F2 F2 G2 A2 | B4 A4 | A2 F2 G3 F | F8 |] %16
V:2
 C2 F2 F2 F2 | F4 F4 | F2 E2 D2 C2 | C8 || C2 F2 F2 F2 | (F2 D2) F4 | F2 F2 E2 E2 | E8 || %8
w: In the hour of|tri- al,|Je- sus, pray for|me,|Lest by base de-|ni\- * al|I de- part from|Thee;|
w: ~With its witch- ing|plea- sures|Would this vain world|charm,|Or its sor- did|trea\- * sures|Spread to work me|harm,|
w: ~~If with sore af-|flic- tion|Thou in love chas-|tise,|Pour Thy be- ne-|dic\- * tion|On the sac- ri-|fice;|
w: ~When in dust and|ash- es|To the grave I|sink,|While heaven's glo- ry|flash\- * es|O'er the shelv- ing|brink,|
 A2 G2 ^F2 F2 | (G2 =F2) E4 | F2 E2 D2 D2 | C8 || C2 F2 E2 F2 | F4 F4 | F2 F2 F2 E2 | F8 |] %16
w: When Thou seest me|wa\- * *|With a look re-|call,|||||
w: Bring to my re-|mem\- * *|Sad Geth- se- ma-|ne,|||||
w: Then, up- on Thine|al\- * *|Free- ly of- fered|up,|||||
w: On Thy truth re-|ly\- * *|Through that mor- tal|strife,|||||
V:3
 A,2 A,2 B,2 C2 | D4 C4 | C2 C2 B,2 A,2 | G,8 || A,2 A,2 B,2 C2 | (D2 B,2) C4 | =B,2 B,2 B,2 D2 | %7
w: |||||||
w: |||||||
w: |||||||
w: |||||||
 C8 || E2 E2 D2 D2 | D4 (C2 B,2) | A,2 C2 B,2 A,2 | G,8 || A,2 C2 B,2 A,2 | D4 C4 | %14
w: ||* ver, *|||||
w: ||* brance *|||||
w: ||* tar *|||||
w: ||* ing *|||||
 C2 A,2 G,2 B,2 | A,8 |] %16
w: ||
w: ||
w: ||
w: ||
V:4
 F,2 F,2 F,2 F,2 | F,4 F,4 | A,,2 A,,2 B,,2 F,2 | C,8 || F,2 F,2 F,2 F,2 | F,4 F,4 | %6
w: ||||||
w: ||||||
w: ||||||
w: ||||||
 D,2 D,2 E,2 E,2 | A,8 || A,2 A,2 D,2 D,2 | G,4 C,4 | F,2 F,2 B,,2 B,,2 | C,8 || %12
w: ||||||
w: ||||||
w: ||||||
w: ||||||
 F,2 A,2 G,2 (F,E,) | (D,2 B,,2) F,4 | C,2 C,2 C,2 C,2 | F,8 |] %16
w: Nor for fear or *|fav\- * our|Suf- fer me to|fall.|
w: Or, in dark- er *|semb\- * lance,|Cross- crowned Cal- va-|ry.|
w: Though the flesh may *|fal\- * ter,|Faith shall drink the|cup.|
w: Lord, re- ceive me, *|dy\- * ing,|To e- ter- nal|life.|

